!!!COM:      Bach, Johann Sebastian
!!!CDT:      1685/03/31/-1750/07/28/
!!!OPR@@GER: Das wohltemperirte Clavier
!!!OVM@@GER: Band II
!!!OPR@ENG:  Well-Tempered Clavier
!!!OVM@ENG:  Book II
!!!OTL:      Fugue
!!!OKY:      E minor
!!!ONM:      no. 10
!!!SCT:      BWV 879
!!!OMV:      2
**kern	**kern	**kern	**kern
*clefF4	*	*	*clefG2
*k[f#]	*	*	*k[f#]
*e:	*	*	*e:
*M2/2	*	*	*M2/2
*met(c|)	*	*	*met(c|)
*MM104	*MM104	*MM104	*MM104
=1-	=1-	=1-	=1-
4r	4ryy	4ryy	12r
.	.	.	12e
.	.	.	12f#
=2	=2	=2	=2
1r	1ryy	1ryy	4g`
.	.	.	16a
.	.	.	16g
.	.	.	16f#
.	.	.	16g
.	.	.	4a`
.	.	.	16b
.	.	.	16a
.	.	.	16g
.	.	.	16a
=3	=3	=3	=3
1r	1ryy	1ryy	4b`
.	.	.	4g`
.	.	.	4e`
.	.	.	[4cc
=4	=4	=4	=4
1r	1ryy	1ryy	4cc]
.	.	.	6b
.	.	.	12dd#
.	.	.	4ee`
.	.	.	[4a
=5	=5	=5	=5
1r	1ryy	1ryy	4a]
.	.	.	6g
.	.	.	12dd#
.	.	.	4ee`
.	.	.	[4f#
=6	=6	=6	=6
1r	1ryy	1ryy	12f#]
.	.	.	12g
.	.	.	12a
.	.	.	12g
.	.	.	12f#
.	.	.	12e
.	.	.	12d#
.	.	.	12cc
.	.	.	12b
.	.	.	12a
.	.	.	12g
.	.	.	12f#
=7	=7	=7	=7
*	*staff:12	*	*
*	*clefG2	*	*
*	*k[f#]	*	*
1r	2r	1ryy	12g
.	.	.	12a
.	.	.	12b
.	.	.	12a
.	.	.	12g
.	.	.	12f#
.	4r	.	12e
.	.	.	12ee
.	.	.	12dd
.	12r	.	12cc#
.	12B	.	12b
.	12c#X	.	12a#
=8	=8	=8	=8
1r	4d`	1ryy	12b
.	.	.	12dd
.	.	.	12ff#
.	16e	.	4gg#`
.	16d	.	.
.	16c#	.	.
.	16d	.	.
.	4e`	.	12cc#X
.	.	.	12ee
.	.	.	12ggn
.	16f#	.	4aa#`
.	16e	.	.
.	16d	.	.
.	16e	.	.
=9	=9	=9	=9
1r	4f#`	1ryy	12dd
.	.	.	12ff#
.	.	.	12aa#
.	4d`	.	[4bb
.	4B`	.	12bb]
.	.	.	12aan
.	.	.	12gg
.	[4g	.	12ff#
.	.	.	12ee
.	.	.	12dd#
=10	=10	=10	=10
1r	4g]	1ryy	2ee
.	6f#	.	.
.	12a#	.	.
.	4b	.	2ddn
.	[4e	.	.
=11	=11	=11	=11
1r	4e]	1ryy	2cc#
.	6d	.	.
.	12a#	.	.
.	4b	.	2b
.	[4c#X	.	.
=12	=12	=12	=12
1r	12c#]	1ryy	4a#
.	12d	.	.
.	12e	.	.
.	12d	.	4b
.	12c#X	.	.
.	12B	.	.
.	12A#X	.	[2cc#X
.	12g	.	.
.	12f#	.	.
.	12e	.	.
.	12d	.	.
.	12c#	.	.
=13	=13	=13	=13
2r	12d	1ryy	4cc#]
.	12e	.	.
.	12f#	.	.
.	12e	.	6ff#
.	12d	.	.
.	12c#X	.	12a#
4r	12B	.	[2b
.	12an	.	.
.	12g	.	.
12r	12f#	.	.
12E	12e	.	.
12F#	12d#	.	.
=14	=14	=14	=14
4G`	2e	1ryy	12b]
.	.	.	12g
.	.	.	12b
16A	.	.	[4cc#
16G	.	.	.
16F#	.	.	.
16G	.	.	.
4A`	2f#	.	12cc#]
.	.	.	12a
.	.	.	12ccn
16B	.	.	[4dd#
16A	.	.	.
16G	.	.	.
16A	.	.	.
=15	=15	=15	=15
4B`	2g	1ryy	12dd#]
.	.	.	12b
.	.	.	12dd#
4G`	.	.	[4ee
4E`	12g#	.	2ee_
.	12ddn	.	.
.	12cc	.	.
[4c	12b	.	.
.	12a	.	.
.	12g#X	.	.
=16	=16	=16	=16
4c]	2a	1ryy	12ee]
.	.	.	12dd#
.	.	.	12ee
6B	.	.	[4ff#
12d#	.	.	.
4e	2gn	.	12ff#]
.	.	.	12ee
.	.	.	12ddn
[4A	.	.	12cc#
.	.	.	12dd#
.	.	.	12ee
=17	=17	=17	=17
4A]	2f#	1ryy	12dd#
.	.	.	12ee
.	.	.	12ff#
6G	.	.	[4b
12d#	.	.	.
4e	2e	.	12b]
.	.	.	12a
.	.	.	12g
[4F#	.	.	12a
.	.	.	12b
.	.	.	[12cc
=18	=18	=18	=18
12F#]	4d#	1ryy	4cc]
12G	.	.	.
12A	.	.	.
12G	4e	.	12b
12F#	.	.	12a
12E	.	.	12g
12D#	[2f#	.	4a
12c	.	.	.
12B	.	.	.
12A	.	.	4d#
12G	.	.	.
12F#	.	.	.
=19	=19	=19	=19
12G	6f#]	1ryy	[2b
12A	.	.	.
12B	12d#	.	.
12A	6e	.	.
12G	.	.	.
12F#	12f#	.	.
12E	[2g	.	6b]
12d	.	.	.
12c	.	.	12e
12B	.	.	6d#X
12A	.	.	.
12G	.	.	12e
=20	=20	=20	=20
12A	6g]	1ryy	[2cc
12B	.	.	.
12c	12e	.	.
12B	6f#	.	.
12A	.	.	.
12G	12g	.	.
12F#	[2a	.	6cc]
12e	.	.	.
12d	.	.	12f#
12c	.	.	6e
12B	.	.	.
12A	.	.	12f#
=21	=21	=21	=21
12B	6a]	1ryy	[2dd
12c	.	.	.
12d	12f#	.	.
12c	6g	.	.
12B	.	.	.
12A	12a	.	.
12G	4b	.	12dd]
12B	.	.	12g
12d	.	.	12a
4g	4r	.	12b
.	.	.	12cc
.	.	.	12dd
=22	=22	=22	=22
4c	12r	1ryy	[2ee
.	12dd	.	.
.	12cc	.	.
4e	12b	.	.
.	12a	.	.
.	12g	.	.
12F#	4a	.	12ee]
12A	.	.	12f#
12c	.	.	12g
4f#	4r	.	12a
.	.	.	12b
.	.	.	12cc
=23	=23	=23	=23
4B	12r	1ryy	[2dd
.	12cc	.	.
.	12b	.	.
4d	12a	.	.
.	12g	.	.
.	12f#	.	.
12E	4g	.	12dd]
12G	.	.	12e
12B	.	.	12f#
4e	4r	.	12g
.	.	.	12a
.	.	.	12b
=24	=24	=24	=24
4A	12r	1ryy	[2cc
.	12b	.	.
.	12a	.	.
4c	12g	.	.
.	12f#	.	.
.	12e	.	.
12D	4f#	.	12cc]
12F#	.	.	12d
12A	.	.	12e
4d	4r	.	12f#
.	.	.	12g
.	.	.	12a
=25	=25	=25	=25
2G	12r	1ryy	4b`
.	12B	.	.
.	12d	.	.
.	[4e	.	16cc
.	.	.	16b
.	.	.	16a
.	.	.	16b
2A	12e]	.	4cc`
.	12c	.	.
.	12e	.	.
.	[4f#	.	16dd
.	.	.	16cc
.	.	.	16b
.	.	.	16cc
=26	=26	=26	=26
4B	12f#]	1ryy	4dd
.	12d	.	.
.	12f#	.	.
4r	12g	.	4b
.	12G	.	.
.	12B	.	.
2r	12e	.	4g
.	12E	.	.
.	12F#	.	.
.	12G	.	[4ee
.	12A	.	.
.	12B	.	.
=27	=27	=27	=27
12r	2c	1ryy	4ee]
12A	.	.	.
12G	.	.	.
12F#	.	.	6dd
12G	.	.	.
12A	.	.	12ff#
12r	2B	.	4gg
12G	.	.	.
12F#	.	.	.
12E	.	.	[4cc
12F#	.	.	.
12G	.	.	.
=28	=28	=28	=28
12r	2A	1ryy	4cc]
12F#	.	.	.
12E	.	.	.
12D	.	.	6b
12E	.	.	.
12C	.	.	12ff#
4BB	12r	.	4gg
.	12D	.	.
.	[12G	.	.
4C#	12G]	.	[4a
.	12F#	.	.
.	12G	.	.
=29	=29	=29	=29
2D	4F#	1ryy	12a]
.	.	.	12b
.	.	.	12cc
.	4G	.	12b
.	.	.	12a
.	.	.	12g
4r	4A	.	12f#
.	.	.	12ee
.	.	.	12dd
4D	4F#	.	12cc
.	.	.	12b
.	.	.	12a
=30	=30	=30	=30
[4G	6G	1ryy	12b
.	.	.	12cc
.	12B	.	12dd
6G]	2d	.	12cc
.	.	.	12b
12F#	.	.	12a
4E	.	.	12g
.	.	.	12gg
.	.	.	12ff#
4A	12c#	.	12ee
.	12d	.	12dd
.	12e	.	12cc#X
=31	=31	=31	=31
12D	4f#	1ryy	4dd
12F#	.	.	.
12A	.	.	.
4B	16g	.	4r
.	16f#	.	.
.	16e	.	.
.	16f#	.	.
12E	4g	.	4cc#
12G	.	.	.
12A	.	.	.
4c#	16a	.	4r
.	16g	.	.
.	16f#	.	.
.	16g	.	.
=32	=32	=32	=32
12F#	4a	1ryy	4ccn
12G	.	.	.
12A	.	.	.
4d	4f#	.	4r
12r	4d	.	4b
12cn	.	.	.
12B	.	.	.
12A	[4b	.	4dd
12G	.	.	.
12F#	.	.	.
=33	=33	=33	=33
12E	4b]	1ryy	2gg
12G	.	.	.
12B	.	.	.
12c#	6a	.	.
12e	.	.	.
12A	12cc#	.	.
12D	4dd	.	2ff#
12d	.	.	.
12c#X	.	.	.
12B	[4g	.	.
12A	.	.	.
12G	.	.	.
=34	=34	=34	=34
12C#	4g]	1ryy	2ee
12E	.	.	.
12G	.	.	.
12A	6f#	.	.
12c#X	.	.	.
12F#	12cc#	.	.
12BB	4dd	.	2dd
12B	.	.	.
12A	.	.	.
12G	[4e	.	.
12F#	.	.	.
12E	.	.	.
=35	=35	=35	=35
2A	12e]	1ryy	4cc#
.	12f#	.	.
.	12g	.	.
.	12f#	.	4dd
.	12e	.	.
.	12d	.	.
4r	12c#X	.	[2ee
.	12b	.	.
.	12a	.	.
4c#	12g	.	.
.	12f#	.	.
.	12e	.	.
=36	=36	=36	=36
2d	12f#	1ryy	6ee]
.	12g	.	.
.	12a	.	12cc#
.	12g	.	6dd
.	12f#	.	.
.	12e	.	12ee
4r	12d	.	[2ff#
.	12ccn	.	.
.	12b	.	.
4d#	12a	.	.
.	12g	.	.
.	12f#	.	.
=37	=37	=37	=37
2e	12g	1ryy	6ff#]
.	12a	.	.
.	12b	.	12dd#
.	12a	.	6ee
.	12g	.	.
.	12f#	.	12ff#
4r	12e	.	4gg
.	12ddn	.	.
.	12cc#	.	.
4e#	12b	.	[4cc#X
.	12a#	.	.
.	12g#	.	.
=38	=38	=38	=38
[2f#	4a#	1ryy	12cc#]
.	.	.	12dd
.	.	.	12ee
.	4b	.	12dd
.	.	.	12cc#
.	.	.	12b
12f#]	4cc#X	.	4aa#
12g	.	.	.
12f#	.	.	.
12e	[4cc#	.	4cc#S
12d	.	.	.
12c#	.	.	.
=39	=39	=39	=39
[2d	12cc#]	1ryy	2.ff#
.	12ee	.	.
.	12dd	.	.
.	12cc#	.	.
.	12b	.	.
.	12a#	.	.
12d]	4b	.	.
12e	.	.	.
12d	.	.	.
12c#	4cc#X	.	[4ee
12B	.	.	.
12A#	.	.	.
=40	=40	=40	=40
[2B	2f#	1ryy	12ee]
.	.	.	12ff#
.	.	.	12ee
.	.	.	12dd
.	.	.	12cc#
.	.	.	12b
12B]	4r	.	[2ff#
12cn	.	.	.
12B	.	.	.
12A	4f#	.	.
12G	.	.	.
12F#	.	.	.
=41	=41	=41	=41
[2G	2b	1ryy	12ff#]
.	.	.	12gg
.	.	.	12ff#
.	.	.	12ee
.	.	.	12dd#
.	.	.	12cc#
12G]	4cc#X	.	[2aa
12A	.	.	.
12G	.	.	.
12F#	12dd#X	.	.
12E	12ee	.	.
12D#	12ff#	.	.
=42	=42	=42	=42
12E	4b	1ryy	4aa]
12F#	.	.	.
12E	.	.	.
12Dn	[4ee	.	4gg
12C#	.	.	.
12BB	.	.	.
12AA#	12ee]	.	[2ff#
12FF#	12ee	.	.
12GG#	12dd	.	.
12AA#X	12cc#	.	.
12BB	12b	.	.
12C#X	12a#	.	.
=43	=43	=43	=43
4D`	12b	1ryy	2ff#]
.	12dd	.	.
.	12b	.	.
16E	4g#	.	.
16D	.	.	.
16C#	.	.	.
16D	.	.	.
4E`	[2cc#	.	12r
.	.	.	12ee
.	.	.	12g#X
16F#	.	.	4a#
16E	.	.	.
16D	.	.	.
16E	.	.	.
=44	=44	=44	=44
4F#`	4cc#]	1ryy	12dd
.	.	.	12ff#
.	.	.	12a#
4D`	[4b	.	[4b
4BB`	12b]	.	2b_
.	12an	.	.
.	12g	.	.
[4G	12f#	.	.
.	12e	.	.
.	12d#	.	.
=45	=45	=45	=45
4G]	2e	1ryy	12b]
.	.	.	12cc#
.	.	.	12b
6F#	.	.	12a#
.	.	.	12g#
12A#	.	.	12f#
4B	2d	.	12r
.	.	.	12b
.	.	.	12an
[4E	.	.	12gn
.	.	.	12f#
.	.	.	12e
=46	=46	=46	=46
4E]	2c#	1ryy	12a#
.	.	.	12f#
.	.	.	12g#
6D	.	.	12a#
.	.	.	12b
12A#	.	.	12cc#X
4B	2B	.	12dd
.	.	.	12c#X
.	.	.	12d
[4C#	.	.	12e
.	.	.	12f#
.	.	.	[12gn
=47	=47	=47	=47
12C#]	4A#	1ryy	4g]
12D	.	.	.
12E	.	.	.
12D	4B	.	12f#
12C#	.	.	12e
12BB	.	.	12d
12AA#	[2c#	.	4e
12G	.	.	.
12F#	.	.	.
12E	.	.	4A#X
12D	.	.	.
12C#X	.	.	.
=48	=48	=48	=48
12D	6c#]	1ryy	[2f#
12E	.	.	.
12F#	12A#	.	.
12E	6B	.	.
12D	.	.	.
12C#	12c#X	.	.
12BB	[2d	.	6f#]
12A	.	.	.
12G	.	.	12B
12F#	.	.	6A#X
12E	.	.	.
12D	.	.	12B
=49	=49	=49	=49
12E	6d]	1ryy	[2g
12F#	.	.	.
12G	12B	.	.
12F#	6c#	.	.
12E	.	.	.
12D	12d	.	.
12C#	[2e	.	6g]
12B	.	.	.
12A	.	.	12c#X
12G	.	.	6B
12F#	.	.	.
12E	.	.	12c#
=50	=50	=50	=50
12F#	6e]	1ryy	[2a
12G	.	.	.
12A	12c#	.	.
12G	6d#	.	.
12F#	.	.	.
12E	12e	.	.
12D#	[4f#	.	6a]
12cn	.	.	.
12B	.	.	12e
12A	12f#]	.	4d#X
12G	12e	.	.
12F#	12f#	.	.
=51	=51	=51	=51
12E	4g	1ryy	4e
12G	.	.	.
12B	.	.	.
4c#	16a	.	4r
.	16g	.	.
.	16f#	.	.
.	16g	.	.
12F#	4a	.	4ccn
12A	.	.	.
12cn	.	.	.
4d#	16b	.	4r
.	16a	.	.
.	16g	.	.
.	16a	.	.
=52	=52	=52	=52
12G	4b	1ryy	4b
12B	.	.	.
12d#	.	.	.
4e	4g	.	12r
.	.	.	12ee
.	.	.	12dd
12E	4e	.	12cc
12dn	.	.	12b
12c	.	.	12a
12B	[4cc	.	12g#
12A	.	.	12a
12G#	.	.	12b
=53	=53	=53	=53
2A	4cc]	1ryy	12e
.	.	.	12f#
.	.	.	12e
.	6b	.	12d#
.	.	.	12e
.	12dd#X	.	12f#
2Gn	4ee	.	12B
.	.	.	12e
.	.	.	12d
.	[4a	.	12c#
.	.	.	12d#
.	.	.	12e
=54	=54	=54	=54
2F#	4a]	1ryy	12d#
.	.	.	12e
.	.	.	12f#
.	6g	.	12B
.	.	.	12c
.	12dd#	.	12A
2E	4ee	.	12G
.	.	.	12A
.	.	.	12B
.	[4f#	.	12c
.	.	.	12B
.	.	.	12A
=55	=55	=55	=55
4D#	12f#]	1ryy	2B
.	12g	.	.
.	12a	.	.
4E	12g	.	.
.	12f#	.	.
.	12e	.	.
4F#	12d#	.	4r
.	12cc	.	.
.	12b	.	.
4BB	12a	.	4dd#X
.	12g	.	.
.	12f#	.	.
=56	=56	=56	=56
4E	12g	1ryy	2ee
.	12a	.	.
.	12b	.	.
4F#	12a	.	.
.	12g	.	.
.	12f#	.	.
4G	[2e	.	12r
.	.	.	12ffn
.	.	.	12ee
4G#	.	.	12dd
.	.	.	12cc
.	.	.	12b
=57	=57	=57	=57
4A	6e]	1ryy	12cc
.	.	.	12dd
.	[12f#	.	12ee
4B	6f#]	.	12dd
.	.	.	12cc
.	12g#	.	12b
4c	4a	.	12a
.	.	.	12bb
.	.	.	12aa
4c#	[4e	.	12ggn
.	.	.	12ff#
.	.	.	12ee
=58	=58	=58	=58
4D	6e]	1ryy	12ff#
.	.	.	12gg
.	[12d	.	12aa
4E	6d]	.	12gg
.	.	.	12ff#
.	12c#	.	12ee
4F#	[2d	.	12dd
.	.	.	12ee
.	.	.	12dd
4D	.	.	12ccn
.	.	.	12b
.	.	.	12a
=59	=59	=59	=59
4G	6d]	1ryy	12b
.	.	.	12cc
.	[12e	.	12dd
4A	6e]	.	12cc
.	.	.	12b
.	12f#	.	12a
4B	12g	.	8g
.	12a	.	.
.	.	.	8r
.	12g	.	.
4G	12fn	.	4r
.	12e	.	.
.	12d	.	.
=60	=60	=60	=60
12C	12e	1ryy	2r
12D	12fn	.	.
12E	12g	.	.
12D	12f	.	.
12E	12e	.	.
12Fn	12d	.	.
12E	12c	.	4r
12G#	12d	.	.
12A	12c	.	.
4D	12B	.	12r
.	12A	.	12a
.	12G#	.	12b
=61	=61	=61	=61
12C	[2A	1ryy	4cc
12D	.	.	.
12E	.	.	.
4Fn	.	.	16dd
.	.	.	16cc
.	.	.	16b
.	.	.	16cc
2BB	12A]	.	4dd
.	12D	.	.
.	12F	.	.
.	4G#	.	16ee
.	.	.	16dd
.	.	.	16cc
.	.	.	16dd
=62	=62	=62	=62
4AA	12r	1ryy	4ee
.	12C	.	.
.	12D	.	.
4r	12E	.	4cc
.	12F#X	.	.
.	12G#	.	.
12r	8A	.	4a
12B	.	.	.
.	8r	.	.
12c	.	.	.
12d	4r	.	[4ffn
12e	.	.	.
12fn	.	.	.
=63	=63	=63	=63
12G#	2dd	1ryy	4ff]
12A	.	.	.
12B	.	.	.
12c	.	.	6ee
12d	.	.	.
12e	.	.	12gg#
12F#X	2cc	.	4aa
12G#X	.	.	.
12A	.	.	.
12B	.	.	[4dd
12c	.	.	.
12A	.	.	.
=64	=64	=64	=64
12G#	2b	1ryy	4dd]
12F#	.	.	.
12E	.	.	.
12A	.	.	6cc
12B	.	.	.
12c	.	.	12gg#
12Fn	2a	.	4aa
12A	.	.	.
12Gn	.	.	.
12F	.	.	[4b
12G	.	.	.
12E	.	.	.
=65	=65	=65	=65
6D	6g#	1ryy	12b]
.	.	.	12cc
12Fn	12G#X	.	12dd
6E	6A	.	12cc
.	.	.	12b
12D#	12c	.	12a
2E	12B	.	12g#
.	12dn	.	12ffn
.	12c	.	12ee
.	12B	.	12dd
.	12A	.	12cc
.	12G#X	.	12b
=66	=66	=66	=66
6AA	8A	1ryy	12cc
.	.	.	12dd
.	8r	.	.
12E	.	.	12ee
6A	4r	.	12dd
.	.	.	12cc
12B	.	.	12b
6c	12r	.	[2a
.	12g	.	.
12A	12f#	.	.
6F#	12e	.	.
.	12d#	.	.
12A	12c#	.	.
=67	=67	=67	=67
12BB	12d#	1ryy	2a_
12C#	12e	.	.
12D#	12f#	.	.
12C#	12e	.	.
12F#	12d#	.	.
12E	12c#	.	.
12D#X	[2B	.	12a]
12A	.	.	12d#
12G	.	.	12e
12F#	.	.	12f#
12E	.	.	12g
12D#	.	.	12a
=68	=68	=68	=68
12E	6B]	1ryy	[2g
12F#	.	.	.
12G	12B	.	.
12F#	6c	.	.
12E	.	.	.
12Dn	12B	.	.
4C#	4A#	.	12g]
.	.	.	12d#
.	.	.	12e
4Cn	[4An	.	12g
.	.	.	12f#
.	.	.	12a
=69	=69	=69	=69
[1BB	12A]	1ryy	6d#
.	12c	.	.
.	12B	.	12e
.	12A	.	[4f#
.	12G	.	.
.	12F#	.	.
*MM98	*MM98	*MM98	*MM98
.	[2G	.	12f#]
.	.	.	12B
.	.	.	12d#X
.	.	.	12f#
.	.	.	12b
.	.	.	12d#
=70	=70	=70	=70
*MM70	*MM70	*MM70	*MM70
12BB]	4G]	1ryy	[2e
12C#	.	.	.
12D#	.	.	.
12E	4r	.	.
12F#	.	.	.
12G	.	.	.
*MM40	*MM40	*MM40	*MM40
2AA#	[4G	.	12e]
*MM104	*MM104	*MM104	*MM104
.	.	.	12g
.	.	.	12a#
.	12G]	.	12cc#
.	12F#	.	12dd#
.	12G	.	12ee
=71	=71	=71	=71
2BB	4G	1ryy	4e
.	4F#;	.	4d#;
12r	2r	.	2r
12C	.	.	.
12BB	.	.	.
12AA	.	.	.
12GG	.	.	.
12FF#	.	.	.
=72	=72	=72	=72
12GG	1ryy	1ryy	12r
12AA	.	.	12B
12GG	.	.	12c#
12FF#	.	.	12d#
12EE	.	.	12e
12DD#	.	.	12f#
4EE	.	.	12g
.	.	.	12ccn
.	.	.	12b
12r	.	.	12a
12EE	.	.	12g
12FF#	.	.	12f#
=73	=73	=73	=73
4GG	1ryy	1ryy	12e
.	.	.	12gg
.	.	.	12ee
16AA	.	.	4cc#
16GG	.	.	.
16FF#	.	.	.
16GG	.	.	.
4AA	.	.	12f#
.	.	.	12aa
.	.	.	12ff#
16BB	.	.	4dd#
16AA	.	.	.
16GG	.	.	.
16AA	.	.	.
=74	=74	=74	=74
*	*staff:8	*	*
4BB	2r	1ryy	12g
.	.	.	12bb
.	.	.	12gg
4GG	.	.	12ee
.	.	.	12dd
.	.	.	12cc#
4EE	12r	.	2dd
.	12b	.	.
.	12g#	.	.
[4C	12e	.	.
.	12f#	.	.
.	12g#	.	.
=75	=75	=75	=75
4C]	2a	1ryy	12cc
.	.	.	12f#
.	.	.	12e
6BB	.	.	12d#
.	.	.	12e
12D#	.	.	12f#
4E	2g	.	12g
.	.	.	12a
.	.	.	12b
[4AA	.	.	12cc
.	.	.	12b
.	.	.	12a
=76	=76	=76	=76
4AA]	2f#	1ryy	12dd#
.	.	.	12ee
.	.	.	12ff#
6GG	.	.	12b
.	.	.	12cc
12D#	.	.	12a
4E	2e	.	12g
.	.	.	12f#
.	.	.	12g
[4FF#	.	.	12a
.	.	.	12b
.	.	.	[12cc
=77	=77	=77	=77
12FF#]	4d#	1ryy	4cc]
12GG	.	.	.
12AA	.	.	.
12GG	4e	.	12b
12FF#	.	.	12a
12EE	.	.	12g
12DD#	[2f#	.	[2a
12C	.	.	.
12BB	.	.	.
12AA	.	.	.
12GG	.	.	.
12FF#	.	.	.
=78	=78	=78	=78
12GG	6f#]	1ryy	6a]
12AA	.	.	.
12BB	12d#	.	12f#
12AA	6B	.	6b
12GG	.	.	.
12FF#	12d#	.	12a
12EE	[2e	.	[2g
12E	.	.	.
12D	.	.	.
12C	.	.	.
12BB	.	.	.
12AA#	.	.	.
=79	=79	=79	=79
[1BB	4e]	1ryy	12g]
.	.	.	12b
.	.	.	12a
.	4r	.	12g
.	.	.	12f#
.	.	.	12e
.	12r	.	12d#
.	12D#X	.	[6cc
.	12E	.	.
.	12F#	.	12cc]
.	12G	.	12e
.	12A	.	12d#
=80	=80	=80	=80
4BB_	12G	1ryy	12b
.	[6e	.	12e
.	.	.	12g
12BB]	4e_	.	[4cc#
12A#	.	.	.
12B	.	.	.
[4BB	12e]	.	6cc#]
.	[6f#	.	.
.	.	.	12a
12BB]	4f#_	.	[4dd#
12A#X	.	.	.
12B	.	.	.
=81	=81	=81	=81
[4BB	12f#]	1ryy	6dd#]
.	[6g	.	.
.	.	.	12b
12BB]	4g_	.	[4ee
12A#	.	.	.
12B	.	.	.
[4BB	12g]	.	6ee]
.	[6a	.	.
.	.	.	12dd#
12BB]	4a_	.	[4ff#
12A#X	.	.	.
12B	.	.	.
=82	=82	=82	=82
[4BB	12a]	1ryy	6ff#]
.	[6b	.	.
.	.	.	12ee
12BB]	4b]	.	4gg
12A#	.	.	.
12B	.	.	.
12F#	2r	.	2r
12G	.	.	.
12D#	.	.	.
12E	.	.	.
12BB	.	.	.
12C	.	.	.
=83	=83	=83	=83
*MM98	*MM98	*MM98	*MM98
4DD#	1ryy	1ryy	12r
.	.	.	12cc
.	.	.	12ff#
4r	.	.	12aa
.	.	.	12dd#
.	.	.	12ff#
*MM40	*MM40	*MM40	*MM40
2r	.	.	12cc
*MM20	*MM20	*MM20	*MM20
.	.	.	12b
*MM40	*MM40	*MM40	*MM40
.	.	.	12dd#X
*MM98	*MM98	*MM98	*MM98
.	.	.	12ff#
.	.	.	12a
.	.	.	12cc
=84	=84	=84	=84
2r	2ryy	1ryy	12g
.	.	.	12f#
.	.	.	12a
.	.	.	12cc
.	.	.	12f#
.	.	.	12a
4C	4F# 4A	.	12e
.	.	.	12d#;
.	.	.	12dd#XS
12r	12r	.	[4ee
12r	12r	.	.
12A#	12f#	.	.
=85	=85	=85	=85
*MM94	*MM94	*MM94	*MM94
[1B	[4g	1ryy	12ee]
.	.	.	12ddn
.	.	.	12cc
*MM88	*MM88	*MM88	*MM88
.	12g]	.	12b
.	12f#	.	12a
.	12e	.	12g
*MM82	*MM82	*MM82	*MM82
.	6d#	.	12a
.	.	.	12f#
.	12e	.	12g
*MM76	*MM76	*MM76	*MM76
.	6f#	.	12a
.	.	.	12b
.	12e	.	[12cc
=86	=86	=86	=86
*	*staff:1	*	*
*	*clefF4	*	*
12B]	8d#	1ryy	12cc]
12c#	.	.	12b
.	8r	.	.
12d#	.	.	12a
12e	12r	.	12g
12r	12F#	.	12d#
12AA#	12G	.	[12e
*MM50	*MM50	*MM50	*MM50
2BB	[4F#	.	12e]
.	.	.	24f#
.	.	.	24a
.	.	.	12cc
.	12F#]	.	6d#Xw
.	12G	.	.
.	[12An	.	12e
=87	=87	=87	=87
*	*	*staff:2	*
*	*	*clefG2	*
*	*	*k[f#]	*
[2E	12A]	12r	1e
.	[6G#	12B	.
.	.	12dn	.
.	12G#]	4c	.
.	12G#	.	.
.	[12A	.	.
12E]	4A]	2B	.
12D#	.	.	.
12E	.	.	.
4EE;y	4G#;	.	.
==	==	==	==
*-	*-	*-	*-
!!!AFR:  fugue
!!!EFL:  68/96
!!!END:  1994/02/08/
!!!VID:  3505171576 Bach, BWV 879-02
!!!AST:  Baroque
!!!OCY:  Deutschland
!!!ODT:  1742///
!!!PDT:  1801///
!!!EED:  Walter Hewlett
!!!ENC:  Walter Hewlett
!!!YOR:  Bach Gesellschaft Edition xiv
!!!AFT:  enhanced SCORE
!!!RDT:  2011/10/07/ by Andreas Kornstaedt using massScr2hmd
!!!SCA1: Thematisch-systematisches Verzeichnis der musikalischen Werke 
!!!SCA2: Johann Sebastian Bach: Bach-Werke-Verzeichnis (Schmieder)
!!!YEC1: Copyright 1994, 2000 Center for Computer Assisted Research 
!!!YEC2: in the Humanities
!!!YEM1: Rights to all derivative editions reserved.
!!!YEM2: Refer to licensing agreement for further details.
!!!YEN:  United States of America
!!!ref:  @{OTL}, @{SCT}
!!muse2ps: T^@{OTL} @{ONM} in @{OKY}^C^J.S. Bach\n@{SCT}-@{OMV}^
!!muse2ps: u^@{OPR@ENG}, @{OVM@ENG}^j
